X: 58
T:Sugar in my Coffee-o
% Nottingham Music Database
P:AAB
S:Lynn Rohrbough, via EF
M:4/4
L:1/4
K:G
P:A
"G"GG A/2BA/2|"G"Bd "D7"dB/2A/2|"G"GG A/2BG/2|"D7"AG "G"G2:|
P:B
"G"gg "C"g/2a/2g/2e/2|"G"dB "D7"d3/2e/2|"G"gg gg/2a/2|"A7"ba "D7"a2|
"G"gg "C"g/2a/2g/2e/2|"G"dB "D7"dB/2A/2|"G"GG G/2A/2B/2G/2|"D7"AG "G"G2||<end>
<start>
